email-open-multiple-outline.svg

<svg fill="currentColor" viewBox="0 0 24 24"><path d="M2 8v14h18v2H2c-1.105 0-2-.89-2-2V8zm21.03-1.71L14 .64 4.97 6.29C4.39 6.64 4 7.27 4 8v10c0 1.1.9 2 2 2h16c1.1 0 2-.9 2-2V8c0-.73-.39-1.36-.97-1.71M22 18H6v-8l8 5 8-5zm-8-5L6 8l8-5 8 5z"/></svg>

<svg  viewBox="0 0 24 24" fill="currentColor"><path  d="M2 8V22H20V24H2C.895 24 0 23.11 0 22V8H2M23.03 6.29L14 .64L4.97 6.29C4.39 6.64 4 7.27 4 8V18C4 19.1 4.9 20 6 20H22C23.1 20 24 19.1 24 18V8C24 7.27 23.61 6.64 23.03 6.29M22 18H6V10L14 15L22 10V18M14 13L6 8L14 3L22 8L14 13Z"/></svg>
